**kern	**kern	**dynam
*part1	*part1	*part1
*staff2	*staff1	*
*I"Piano	*	*
*clefF4	*clefG2	*
*k[]	*k[]	*
=1	=1	=1
*^	*^	*
!	!	!	!	!LO:DY:a
(4.B-X:	[4.FF	(4.dd	16ddLL	<
.	.	.	16d	.
.	.	.	16f	.
.	.	.	16b-X	.
.	.	.	16f	[
.	.	.	16gJJ	.
=	=	=	=	=
!	!	!	!	!LO:DY:a
4A)	4FF]	4a) 4cc	16aLL	>
.	.	.	(16A<	.
.	.	.	16c<	.
.	.	.	16d#X<	.
8rBB	8rBByy	8ryy	16c<	.
.	.	.	16AJJ<)	]
*v	*v	*	*	*
=	=	=	=
(8EEL 8E	(8eL	16cLL	p
.	.	16A<	.
8CC 8C	8a	16e	.
.	.	16A<	.
8AAAJ 8AA	8ccJ)	16a	<
.	.	16eJJ	.
*	*v	*v	*
=	=	=
4DD 4D	(16bLL	[
.	16B	>
.	16d	.
.	16f#X	.
8EE 8E	16e	.
.	16dJJ)	.
=	=	=
*	*^	*
[4.AAA) [4.AA	16cLL	(4c	]
.	16e	.	.
.	16a	.	.
.	16g	.	.
!	!	!	!LO:DY:a
.	16fn	8c#X)	<
.	16eJJ	.	.
=	=	=	=
*^	*	*	*
!	!	!LO:TX:a:i:t=un poco riten.	!	!
4.AAA_ 4.AA_	8ryy	(4f	16dLL	[
.	.	.	16B<	.
.	(4G#X	.	16G#X<	.
.	.	.	16f	.
!	!	!	!	!LO:DY:a
.	.	16eLL	16c#X	>
.	.	16dJJ	16dJJ	.
*	*	*v	*v	*
=	=	=	=
4AAA] 4AA]	4A)	4c#X) 4e	.
8r	8ryy	8r	]
*v	*v	*	*
==	==	==
*-	*-	*-
!!!system-decoration: {(s1,s2)}
!!!RDF**kern: < = below
